brandFactory_export/3.Masa/Grua_3Masa.svg

<?xml version="1.0" encoding="UTF-8"?>
<svg width="24px" height="24px" viewBox="0 0 24 24" version="1.1" xmlns="http://www.w3.org/2000/svg" xmlns:xlink="http://www.w3.org/1999/xlink">
    <title>3.Masa/Grua_3Masa</title>
    <g id="Symbols" stroke="none" stroke-width="1" fill="none" fill-rule="evenodd">
        <g id="3.Masa/Grua_3Masa" fill="#5CB615" fill-rule="nonzero">
            <path d="M17.2504202,20.2840336 C15.7411765,20.2840336 14.9747899,19.5210084 14.9747899,18.0151261 C14.9747899,16.5092437 15.7411765,15.7462185 17.2504202,15.7462185 C18.7596639,15.7462185 19.5260504,16.5092437 19.5260504,18.0151261 C19.5260504,19.5210084 18.7596639,20.2840336 17.2504202,20.2840336 M5.84537815,20.2840336 C4.33613445,20.2840336 3.5697479,19.5210084 3.5697479,18.0151261 C3.5697479,16.5092437 4.33613445,15.7462185 5.84537815,15.7462185 C7.35462185,15.7462185 8.1210084,16.5092437 8.1210084,18.0151261 C8.1210084,19.5210084 7.35462185,20.2840336 5.84537815,20.2840336 M22.692437,10.7781513 C22.2890756,10.2571429 19.2168067,6.19327731 18.692437,5.46722689 C18.1445378,4.70420168 17.1663866,4.21344538 16.205042,4.21344538 L11.0420168,4.21344538 C10.6420168,4.21344538 10.3193277,4.53613445 10.3193277,4.93277311 L10.3193277,10.6436975 L5.28067227,3.34957983 C5.14621849,3.15462185 4.92773109,3.04033613 4.68907563,3.03697479 L2.95798319,3.02352941 L2.9512605,3.02352941 C2.88403361,3.02352941 2.82689076,3.05378151 2.76302521,3.07058824 C2.7092437,3.08067227 2.65546218,3.0907563 2.60504202,3.11092437 C2.60168067,3.11428571 2.59831933,3.11764706 2.59159664,3.1210084 C2.35294118,3.23865546 2.18151261,3.47731092 2.18151261,3.76302521 L2.17142857,8.79831933 C2.17478992,8.8487395 2.16134454,9.07394958 2.07058824,9.17142857 C2.0302521,9.21512605 1.94957983,9.23529412 1.83193277,9.23529412 C1.71764706,9.20168067 1.62016807,9.22521008 1.56638655,9.16806723 C1.48907563,9.08403361 1.46554622,8.87226891 1.47563025,8.76134454 C1.51932773,8.36806723 1.23697479,8.00840336 0.840336134,7.96134454 C0.440336134,7.9210084 0.0840336134,8.19663866 0.0369747899,8.59327731 C0.0268907563,8.68739496 -0.0537815126,9.52773109 0.487394958,10.1294118 C0.712605042,10.3815126 1.12605042,10.6773109 1.82521008,10.6773109 L1.84201681,10.6773109 C2.50756303,10.6739496 2.91428571,10.3848739 3.13277311,10.1462185 C3.6605042,9.57478992 3.62016807,8.78151261 3.61344538,8.74789916 L3.61680672,6.7210084 L5.73445378,10.9831933 L0.749579832,10.9831933 C0.349579832,10.9831933 0.0268907563,11.3058824 0.0268907563,11.702521 L0.0268907563,16.9831933 C0.0268907563,17.6722689 0.329411765,18.3680672 0.860504202,18.8957983 C1.28403361,19.3193277 1.82184874,19.5815126 2.4302521,19.6789916 C2.96470588,20.9731092 4.16806723,21.7294118 5.83865546,21.7294118 C7.48907563,21.7294118 8.6789916,20.9865546 9.22352941,19.7260504 L13.8554622,19.7260504 C14.4,20.989916 15.589916,21.7294118 17.2403361,21.7294118 C18.8907563,21.7294118 20.0806723,20.9865546 20.6252101,19.7260504 L20.8941176,19.7260504 C21.5831933,19.7260504 22.2857143,19.4235294 22.8134454,18.8957983 C23.3445378,18.3680672 23.6471787,17.6689076 23.6471787,16.9831933 L23.6471787,12.9731092 C23.6571429,12.0252101 23.0285714,11.2117647 22.692437,10.7781513" id="Grua_3Masa"></path>
        </g>
    </g>
</svg>

<svg width="24" height="24" viewBox="0 0 24 24" xmlns="http://www.w3.org/2000/svg"><path d="M17.25 20.284c-1.509 0-2.275-.763-2.275-2.269 0-1.506.766-2.269 2.275-2.269 1.51 0 2.276.763 2.276 2.27 0 1.505-.766 2.268-2.276 2.268m-11.405 0c-1.509 0-2.275-.763-2.275-2.269 0-1.506.766-2.269 2.275-2.269 1.51 0 2.276.763 2.276 2.27 0 1.505-.766 2.268-2.276 2.268m16.847-9.506a551.557 551.557 0 01-4-5.31c-.547-.764-1.526-1.255-2.487-1.255h-5.163a.72.72 0 00-.723.72v5.71L5.281 3.35a.725.725 0 00-.592-.313l-1.731-.013h-.007c-.067 0-.124.03-.188.047-.054.01-.108.02-.158.04-.003.003-.007.007-.013.01a.718.718 0 00-.41.642l-.01 5.035c.003.05-.01.276-.101.373-.04.044-.121.064-.24.064-.113-.033-.21-.01-.265-.067-.077-.084-.1-.296-.09-.407a.725.725 0 00-1.439-.168c-.01.094-.09.935.45 1.536.226.253.64.548 1.338.548h.017c.666-.003 1.072-.292 1.29-.53.529-.572.488-1.365.481-1.4l.004-2.026 2.117 4.262H.75a.72.72 0 00-.723.72v5.28c0 .69.302 1.385.834 1.913a2.81 2.81 0 001.57.783c.534 1.294 1.737 2.05 3.408 2.05 1.65 0 2.84-.742 3.385-2.003h4.631c.545 1.264 1.735 2.003 3.385 2.003 1.65 0 2.84-.742 3.385-2.003h.27c.688 0 1.39-.302 1.918-.83.532-.528.834-1.227.834-1.913v-4.01c.01-.948-.618-1.761-.955-2.195" fill="#5CB615" fill-rule="nonzero"/></svg>
